dist/assets/images/weather/weather_28.svg

<svg width="86" height="86" viewBox="0 0 86 86" fill="none" xmlns="http://www.w3.org/2000/svg">
<g filter="url(#filter0_d)">
<path d="M31.7931 13.3031C36.0697 13.3018 40.2655 14.4673 43.9286 16.6742C47.5917 18.881 50.5833 22.0456 52.581 25.8268C55.0347 24.3923 57.7863 23.5432 60.6217 23.3456C63.4571 23.1479 66.2999 23.6071 68.9289 24.6874C71.5579 25.7677 73.9022 27.44 75.7794 29.5741C77.6567 31.7082 79.0163 34.2467 79.7525 36.992C80.4886 39.7373 80.5815 42.6154 80.0238 45.4025C79.4662 48.1895 78.273 50.8103 76.5373 53.061C74.8015 55.3117 72.5698 57.1316 70.0159 58.3792C67.462 59.6267 64.6548 60.2682 61.8125 60.2537L31.726 60.3344C25.4892 60.3344 19.5079 57.8568 15.0979 53.4468C10.6879 49.0367 8.21033 43.0555 8.21033 36.8187C8.21033 30.582 10.6879 24.6007 15.0979 20.1907C19.5079 15.7806 25.4892 13.3031 31.726 13.3031H31.7931Z" fill="url(#paint0_linear)"/>
<path d="M79.6811 46.755C82.427 36.9271 76.6858 26.734 66.8579 23.9881C57.0299 21.2423 46.8368 26.9834 44.091 36.8114C41.3451 46.6393 47.0863 56.8324 56.9142 59.5783C66.7422 62.3241 76.9352 56.583 79.6811 46.755Z" fill="url(#paint1_linear)"/>
<path d="M44.5184 48.8453L41.6562 65.3063H47.3806L44.5184 77.4672L58.1172 60.2941H51.6806L57.405 48.8453H44.5184Z" fill="#EFCC00"/>
<path d="M38.7672 71.595C38.7672 72.9207 38.2405 74.1922 37.3031 75.1297C36.3656 76.0671 35.0942 76.5938 33.7684 76.5938C32.4427 76.5938 31.1712 76.0671 30.2338 75.1297C29.2963 74.1922 28.7697 72.9207 28.7697 71.595C28.7697 67.2144 32.8009 63.1562 33.7684 63.1562C34.7359 63.1562 38.7672 67.1875 38.7672 71.595Z" fill="#0BAEFF"/>
</g>
<defs>
<filter id="filter0_d" x="-4" y="0" width="94" height="94" filterUnits="userSpaceOnUse" color-interpolation-filters="sRGB">
<feFlood flood-opacity="0" result="BackgroundImageFix"/>
<feColorMatrix in="SourceAlpha" type="matrix" values="0 0 0 0 0 0 0 0 0 0 0 0 0 0 0 0 0 0 127 0"/>
<feOffset dy="4"/>
<feGaussianBlur stdDeviation="2"/>
<feColorMatrix type="matrix" values="0 0 0 0 0 0 0 0 0 0 0 0 0 0 0 0 0 0 0.25 0"/>
<feBlend mode="normal" in2="BackgroundImageFix" result="effect1_dropShadow"/>
<feBlend mode="normal" in="SourceGraphic" in2="effect1_dropShadow" result="shape"/>
</filter>
<linearGradient id="paint0_linear" x1="25.8672" y1="62.3365" x2="54.2069" y2="25.6387" gradientUnits="userSpaceOnUse">
<stop stop-color="#F2F2F2"/>
<stop offset="1" stop-color="#CFCFCF"/>
</linearGradient>
<linearGradient id="paint1_linear" x1="69.4283" y1="35.2122" x2="48.0208" y2="53.8566" gradientUnits="userSpaceOnUse">
<stop offset="0.02" stop-color="white"/>
<stop offset="1" stop-color="white" stop-opacity="0"/>
</linearGradient>
</defs>
</svg>

<svg width="86" height="86" fill="none" xmlns="http://www.w3.org/2000/svg"><g filter="url(#filter0_d)"><path d="M31.793 13.303a23.502 23.502 0 0120.788 12.524 18.477 18.477 0 119.231 34.427l-30.086.08a23.516 23.516 0 010-47.03h.067z" fill="url(#paint0_linear)"/><path d="M79.681 46.755c2.746-9.828-2.995-20.021-12.823-22.767-9.828-2.746-20.021 2.995-22.767 12.823-2.746 9.828 2.995 20.021 12.823 22.767 9.828 2.746 20.021-2.995 22.767-12.823z" fill="url(#paint1_linear)"/><path d="M44.518 48.845l-2.862 16.461h5.725l-2.863 12.161 13.6-17.173H51.68l5.724-11.449H44.518z" fill="#EFCC00"/><path d="M38.767 71.595a5 5 0 01-9.997 0c0-4.38 4.03-8.439 4.998-8.439s5 4.032 5 8.439z" fill="#0BAEFF"/></g><defs><linearGradient id="paint0_linear" x1="25.867" y1="62.337" x2="54.207" y2="25.639" gradientUnits="userSpaceOnUse"><stop stop-color="#F2F2F2"/><stop offset="1" stop-color="#CFCFCF"/></linearGradient><linearGradient id="paint1_linear" x1="69.428" y1="35.212" x2="48.021" y2="53.857" gradientUnits="userSpaceOnUse"><stop offset=".02" stop-color="#fff"/><stop offset="1" stop-color="#fff" stop-opacity="0"/></linearGradient><filter id="filter0_d" x="-4" y="0" width="94" height="94" filterUnits="userSpaceOnUse" color-interpolation-filters="sRGB"><feFlood flood-opacity="0" result="BackgroundImageFix"/><feColorMatrix in="SourceAlpha" values="0 0 0 0 0 0 0 0 0 0 0 0 0 0 0 0 0 0 127 0"/><feOffset dy="4"/><feGaussianBlur stdDeviation="2"/><feColorMatrix values="0 0 0 0 0 0 0 0 0 0 0 0 0 0 0 0 0 0 0.25 0"/><feBlend in2="BackgroundImageFix" result="effect1_dropShadow"/><feBlend in="SourceGraphic" in2="effect1_dropShadow" result="shape"/></filter></defs></svg>
